X: 6480
T: Cat In The Hopper, The
R: jig
M: 6/8
K: Eminor
|:B,EF G2A|~F3D3|E2E e2^c|dBA B2^c|
dfe d^cB|BAF G2A|BdB G2A|BGE {G}E2D:|
|:{d}B2B efg|fd^c d2f|efe ed^c|dBA B2^c|
dfe d^cB|{d}BAF G2A|BdB G2A|BGE ~E3:|

